X: 1
T:Mazurka du Morvan
R:Mazurka
O:France
M:3/4
K:G
D GB|\
d2dB ce|d2dB dB|c2AF Ac|B2GD GB|\
d2dB ce|d2dB dB|c2AF AF |1 G3 :|2 G6||
d2B2 G2|d2 BG Bd|c2 AF Ac|B2 G2 G2|\
d2 B2 G2|d2 BG Bd|c2 AF AF|1 G6 :|2 G2Bd GB||\
DG Bd cB|cF Ac FA|DF Ac BA|BG Bd GB|\
DG Bd cB|cF Ac FA|DF Ac BA |1 G2Bd GB :|2 G3||
